packages/ffe-icons/icons/filled/md/dataset.svg

<svg xmlns="http://www.w3.org/2000/svg" height="24" viewBox="0 -960 960 960" width="24"><path d="M326.154-290.001h67.692q15.365 0 25.759-10.394t10.394-25.759v-67.692q0-15.365-10.394-25.759t-25.759-10.394h-67.692q-15.365 0-25.759 10.394t-10.394 25.759v67.692q0 15.365 10.394 25.759t25.759 10.394Zm240 0h67.692q15.365 0 25.759-10.394t10.394-25.759v-67.692q0-15.365-10.394-25.759t-25.759-10.394h-67.692q-15.365 0-25.759 10.394t-10.394 25.759v67.692q0 15.365 10.394 25.759t25.759 10.394Zm-240-240h67.692q15.365 0 25.759-10.394t10.394-25.759v-67.692q0-15.365-10.394-25.759t-25.759-10.394h-67.692q-15.365 0-25.759 10.394t-10.394 25.759v67.692q0 15.365 10.394 25.759t25.759 10.394Zm240 0h67.692q15.365 0 25.759-10.394t10.394-25.759v-67.692q0-15.365-10.394-25.759t-25.759-10.394h-67.692q-15.365 0-25.759 10.394t-10.394 25.759v67.692q0 15.365 10.394 25.759t25.759 10.394Zm-353.845 390q-30.308 0-51.308-21t-21-51.308v-535.382q0-30.308 21-51.308t51.308-21h535.382q30.308 0 51.308 21t21 51.308v535.382q0 30.308-21 51.308t-51.308 21H212.309Z"/></svg>

<svg xmlns="http://www.w3.org/2000/svg" height="24" viewBox="0 -960 960 960" width="24"><path d="M326.15-290h67.7q15.36 0 25.76-10.39Q430-310.79 430-326.15v-67.7q0-15.36-10.39-25.76Q409.21-430 393.85-430h-67.7q-15.36 0-25.76 10.39Q290-409.21 290-393.85v67.7q0 15.36 10.39 25.76Q310.79-290 326.15-290Zm240 0h67.7q15.36 0 25.76-10.39Q670-310.79 670-326.15v-67.7q0-15.36-10.39-25.76Q649.21-430 633.85-430h-67.7q-15.36 0-25.76 10.39Q530-409.21 530-393.85v67.7q0 15.36 10.39 25.76Q550.79-290 566.15-290Zm-240-240h67.7q15.36 0 25.76-10.39Q430-550.79 430-566.15v-67.7q0-15.36-10.39-25.76Q409.21-670 393.85-670h-67.7q-15.36 0-25.76 10.39Q290-649.21 290-633.85v67.7q0 15.36 10.39 25.76Q310.79-530 326.15-530Zm240 0h67.7q15.36 0 25.76-10.39Q670-550.79 670-566.15v-67.7q0-15.36-10.39-25.76Q649.21-670 633.85-670h-67.7q-15.36 0-25.76 10.39Q530-649.21 530-633.85v67.7q0 15.36 10.39 25.76Q550.79-530 566.15-530ZM212.31-140Q182-140 161-161q-21-21-21-51.31v-535.38Q140-778 161-799q21-21 51.31-21h535.38Q778-820 799-799q21 21 21 51.31v535.38Q820-182 799-161q-21 21-51.31 21H212.31Z"/></svg>
